X:21
T:The boys of the lough
R:Reel
O:Ireland, Scotland, Cape Breton
S:Johnny Wilmot recording...Simplified...
Z:Transcription, arrangement, chords:Mike Long
M:C|
L:1/8
K:D
dB|:\
"D"AF ~F2 AFAB|"G"defd ecdB|"D"AF~F2 dF ~F2|\
"A"(3(EFG) FD EFGB|"D"AF ~F2 AFAB|
"G"defd BcdB|"D"AF ~F2 dF~F2|[1"A"EFGE "D"FDDB:|[2"A"EFGE "D"FDD|]g|
"D"fgaf "G"gfec|"D"defd "A"ecdB|"D"AF~F2 dF~F2|"A"EDEF EGFE|\
"D"Dz af "A"{ga}gfec|
"G"dfcA BcdB|"D"AF~F2 dF~F2|"A"EFGE "D"{F}FDDE||\
"D"Dz af "A"gfec|"G"dB ~B2 GBdB|"D"AF~F2 ABde|
"G"fdgf "A"~e2fg|"D"{a}gf{g}fe fdec|"G"dcBA BcdB|\
"D"AF~F2 dF~F2|"A"{EF}EDEF "D"D2|]
